svg/furkot/freepik/zoo.svg

<svg viewBox="0 0 512 512" xmlns="http://www.w3.org/2000/svg"><path d="m432.264 421.363c13.705 62.897-54.594 76.544-84.677 68.355s-91.445-9.553-91.445-9.553-61.531 1.365-91.614 9.553c-30.084 8.246-98.439-5.459-84.791-68.355s73.816-60.167 90.307-144.957c16.436-84.791 86.156-79.332 86.156-79.332s69.549-5.459 85.985 79.332c16.378 84.79 76.43 82.06 90.079 144.957zm-112.997-229.804c37.021 10.69 77.909-18.539 91.388-65.285 13.477-46.689-5.574-93.208-42.595-103.898-37.022-10.692-77.909 18.538-91.388 65.285-13.477 46.688 5.574 93.207 42.595 103.898zm153.43-17.003c-35.656-14.559-79.445 10.123-97.814 55.161-18.368 45.04-4.378 93.322 31.278 107.822 35.656 14.501 79.445-10.123 97.813-55.162 18.369-45.039 4.38-93.263-31.277-107.821zm-279.962 17.003c37.021-10.692 56.072-57.21 42.595-103.898s-54.423-75.919-91.388-65.228-56.072 57.209-42.595 103.898c13.479 46.689 54.367 75.918 91.388 65.228zm-86.838 145.98c35.657-14.558 49.646-62.839 31.277-107.822s-62.157-69.72-97.813-55.161c-35.656 14.558-49.646 62.839-31.277 107.821 18.368 45.039 62.157 69.72 97.813 55.162z"/></svg>

<svg xmlns="http://www.w3.org/2000/svg" viewBox="0 0 512 512"><path d="M432.264 421.363C445.969 484.26 377.67 497.907 347.587 489.718S256.142 480.165 256.142 480.165 194.611 481.53 164.528 489.718C134.444 497.964 66.089 484.259 79.737 421.363S153.553 361.196 170.044 276.406C186.48 191.615 256.2 197.074 256.2 197.074S325.749 191.615 342.185 276.406C358.563 361.196 418.615 358.466 432.264 421.363ZM319.267 191.559C356.288 202.249 397.176 173.02 410.655 126.274 424.132 79.585 405.081 33.066 368.06 22.376 331.038 11.684 290.151 40.914 276.672 87.661 263.195 134.349 282.246 180.868 319.267 191.559ZM472.697 174.556C437.041 159.997 393.252 184.679 374.883 229.717 356.515 274.757 370.505 323.039 406.161 337.539 441.817 352.04 485.606 327.416 503.974 282.377 522.343 237.338 508.354 189.114 472.697 174.556ZM192.735 191.559C229.756 180.867 248.807 134.349 235.33 87.661S180.907 11.742 143.942 22.433C106.977 33.124 87.87 79.642 101.347 126.331 114.826 173.02 155.714 202.249 192.735 191.559ZM105.897 337.539C141.554 322.981 155.543 274.7 137.174 229.717S75.017 159.997 39.361 174.556C3.705 189.114-10.285 237.395 8.084 282.377 26.452 327.416 70.241 352.097 105.897 337.539Z"/></svg>
